X: 50
M:C|
L:1/8
K:E
u(B"0"A)|\
|:u(d"4"e)|\
.f(BAB) .g(BAB) | .a.B.g.B .f(BAB) | .f(BAB) .g(BAB) |\
.a.f.d.f .e2(d"4"e) |
.f(BAB) .g(BAB) | .a.B.g.B .f(BAB) | E2(GB) e2(eg) |\
{g}fedf e2  :|


